Simply black circles/scalable/mimes/video-x-generic.svg

<?xml version="1.0" encoding="UTF-8" standalone="no"?>
<!-- Created with Inkscape (http://www.inkscape.org/) -->

<svg
   xmlns:dc="http://purl.org/dc/elements/1.1/"
   xmlns:cc="http://creativecommons.org/ns#"
   xmlns:rdf="http://www.w3.org/1999/02/22-rdf-syntax-ns#"
   xmlns:svg="http://www.w3.org/2000/svg"
   xmlns="http://www.w3.org/2000/svg"
   xmlns:xlink="http://www.w3.org/1999/xlink"
   xmlns:sodipodi="http://sodipodi.sourceforge.net/DTD/sodipodi-0.dtd"
   xmlns:inkscape="http://www.inkscape.org/namespaces/inkscape"
   version="1.1"
   width="48"
   height="48"
   id="svg21744"
   sodipodi:docname="application-vnd.rn-realmedia.svg"
   inkscape:version="0.92.3 (2405546, 2018-03-11)">
  <sodipodi:namedview
     pagecolor="#ffffff"
     bordercolor="#666666"
     borderopacity="1"
     objecttolerance="10"
     gridtolerance="10"
     guidetolerance="10"
     inkscape:pageopacity="0"
     inkscape:pageshadow="2"
     inkscape:window-width="1366"
     inkscape:window-height="690"
     id="namedview44"
     showgrid="false"
     inkscape:zoom="5.15625"
     inkscape:cx="-34.569682"
     inkscape:cy="24"
     inkscape:window-x="0"
     inkscape:window-y="28"
     inkscape:window-maximized="1"
     inkscape:current-layer="svg21744"
     inkscape:snap-global="false"
     showguides="true"
     inkscape:guide-bbox="true" />
  <defs
     id="defs21746">
    <linearGradient
       x1="525.4375"
       y1="836.1875"
       x2="516.65625"
       y2="828.5"
       id="linearGradient14113"
       xlink:href="#linearGradient14494-2-7"
       gradientUnits="userSpaceOnUse"
       gradientTransform="translate(-125.5,-1702.64)" />
    <linearGradient
       id="linearGradient14494-2-7">
      <stop
         id="stop14496-9-3"
         style="stop-color:#dc85e9;stop-opacity:1"
         offset="0" />
      <stop
         id="stop14498-9-7"
         style="stop-color:#f2cbf8;stop-opacity:1"
         offset="1" />
    </linearGradient>
    <linearGradient
       x1="520.58502"
       y1="735.05206"
       x2="516.15179"
       y2="720.86298"
       id="linearGradient14115"
       xlink:href="#linearGradient14494-5"
       gradientUnits="userSpaceOnUse" />
    <linearGradient
       id="linearGradient14494-5">
      <stop
         id="stop14496-5"
         style="stop-color:#dc85e9;stop-opacity:1"
         offset="0" />
      <stop
         id="stop14498-1"
         style="stop-color:#f2cbf8;stop-opacity:1"
         offset="1" />
    </linearGradient>
    <linearGradient
       x1="525.4375"
       y1="836.1875"
       x2="516.65625"
       y2="828.5"
       id="linearGradient54948"
       xlink:href="#linearGradient14494-2-7"
       gradientUnits="userSpaceOnUse"
       gradientTransform="translate(-462.50049,-802.00385)" />
    <linearGradient
       x1="520.58502"
       y1="735.05206"
       x2="516.15179"
       y2="720.86298"
       id="linearGradient14109"
       xlink:href="#linearGradient14494-5"
       gradientUnits="userSpaceOnUse"
       gradientTransform="matrix(0.512535,0,0,0.615385,-202.35949,-422.92385)" />
    <linearGradient
       x1="525.4375"
       y1="836.1875"
       x2="516.65625"
       y2="828.5"
       id="linearGradient54952"
       xlink:href="#linearGradient14494-2-7"
       gradientUnits="userSpaceOnUse"
       gradientTransform="translate(-462.50049,-797.50385)" />
    <linearGradient
       x1="209.0625"
       y1="-765.46082"
       x2="209.0625"
       y2="-781.62268"
       id="linearGradient44039"
       xlink:href="#linearGradient15606-1"
       gradientUnits="userSpaceOnUse"
       gradientTransform="matrix(1.5,0,0,1.5,-364.99949,1176.9562)" />
    <linearGradient
       id="linearGradient15606-1">
      <stop
         id="stop15608-0"
         style="stop-color:#ffffff;stop-opacity:0.58823502"
         offset="0" />
      <stop
         id="stop15610-5"
         style="stop-color:#ffffff;stop-opacity:0.86274499"
         offset="1" />
    </linearGradient>
    <linearGradient
       x1="294.3429"
       y1="256.58133"
       x2="294.41818"
       y2="243.13852"
       id="linearGradient44042"
       xlink:href="#linearGradient10286-3"
       gradientUnits="userSpaceOnUse"
       gradientTransform="matrix(2.99213,0,0,3.00466,-830.71149,-727.44385)" />
    <linearGradient
       id="linearGradient10286-3">
      <stop
         id="stop10288-8"
         style="stop-color:#b3b3b3;stop-opacity:1"
         offset="0" />
      <stop
         id="stop10290-7"
         style="stop-color:#e6e6e6;stop-opacity:1"
         offset="1" />
    </linearGradient>
    <linearGradient
       x1="110.96875"
       y1="976.29968"
       x2="110.96875"
       y2="992.375"
       id="linearGradient43236"
       xlink:href="#linearGradient4145-42"
       gradientUnits="userSpaceOnUse" />
    <linearGradient
       id="linearGradient4145-42">
      <stop
         id="stop4953"
         style="stop-color:#e694bb;stop-opacity:1"
         offset="0" />
      <stop
         id="stop4955"
         style="stop-color:#d3819a;stop-opacity:1"
         offset="0.26238" />
      <stop
         id="stop4957"
         style="stop-color:#b25a64;stop-opacity:1"
         offset="0.704952" />
      <stop
         id="stop4959"
         style="stop-color:#98313d;stop-opacity:1"
         offset="1" />
    </linearGradient>
    <linearGradient
       x1="110.96875"
       y1="976.29968"
       x2="110.99982"
       y2="991.87488"
       id="linearGradient14097-7"
       xlink:href="#linearGradient4145-42"
       gradientUnits="userSpaceOnUse"
       gradientTransform="matrix(1,0,0,1.00011,0,-0.10551)" />
    <linearGradient
       x1="110.96875"
       y1="976.29968"
       x2="110.96875"
       y2="992.375"
       id="linearGradient21742"
       xlink:href="#linearGradient4145-42"
       gradientUnits="userSpaceOnUse"
       gradientTransform="matrix(1.00399,0,0,1.00959,-1.1658,-9.36636)" />
    <clipPath
       clipPathUnits="userSpaceOnUse"
       id="clipPath867">
      <g
         inkscape:label="Clip"
         id="use869">
        <path
           d="m 47.000614,3.0210706 v 0.75 40.5000404 0.72723 h 0.75 32.499399 0.75 v -0.72723 -25.50003 -0.3282 l -0.2344,-0.2343 -14.9059,-15.0000104 -0.1875,-0.1875 h -0.3282 -17.593399 z"
           id="path875"
           style="color:#000000;font-style:normal;font-variant:normal;font-weight:normal;font-stretch:normal;font-size:medium;line-height:normal;font-family:'Andale Mono';text-indent:0pt;text-align:start;text-decoration:none;text-decoration-line:none;letter-spacing:normal;word-spacing:normal;text-transform:none;direction:ltr;text-anchor:start;display:inline;overflow:visible;visibility:visible;fill:#000000;fill-opacity:1;fill-rule:nonzero;stroke:none;stroke-width:1;marker:none"
           inkscape:connector-curvature="0" />
      </g>
    </clipPath>
  </defs>
  <metadata
     id="metadata21749">
    <rdf:RDF>
      <cc:Work
         rdf:about="">
        <dc:format>image/svg+xml</dc:format>
        <dc:type
           rdf:resource="http://purl.org/dc/dcmitype/StillImage" />
        <dc:title></dc:title>
      </cc:Work>
    </rdf:RDF>
  </metadata>
  <path
     style="color:#000000;font-style:normal;font-variant:normal;font-weight:normal;font-stretch:normal;font-size:medium;line-height:normal;font-family:'Andale Mono';text-indent:0pt;text-align:start;text-decoration:none;text-decoration-line:none;letter-spacing:normal;word-spacing:normal;text-transform:none;direction:ltr;text-anchor:start;display:inline;overflow:visible;visibility:visible;fill:#1a1a1a;fill-opacity:1;stroke:none;stroke-width:5.99873972;marker:none"
     d="M 29.705078 -0.083984375 C 27.658234 -0.075805254 25.583576 0.00449542 25.1875 0.013671875 L 7 0.013671875 C 6.813106 -0.004321175 6.624454 -0.004321175 6.4375 0.013671875 C 5.062346 0.27607036 3.975341 1.6123101 4 3.0117188 L 4 45 C 4.00015 46.570313 5.429312 47.99985 7 48 L 41 48 C 42.570687 47.99985 43.99985 46.570313 44 45 L 44 18.818359 C 44.018 18.026395 44.215294 8.8914456 43.664062 8.3222656 L 34.054688 0.24804688 C 33.770027 -0.027426575 31.751922 -0.092163496 29.705078 -0.083984375 z M 31.195312 3.0097656 L 31.328125 10.513672 C 31.340155 11.195372 31.966379 11.80479 32.644531 11.792969 L 40.416016 11.65625 C 40.548988 11.674363 40.684161 11.672765 40.816406 11.650391 L 40.898438 14.679688 L 41 18.771484 L 41 44.271484 L 41 44.998047 L 40.25 44.998047 L 7.75 44.998047 L 7 44.998047 L 7 44.271484 L 7 3.7714844 L 7 3.0214844 L 7.75 3.0214844 L 25.34375 3.0214844 L 25.671875 3.0214844 L 31.195312 3.0097656 z M 11.564453 16.703125 C 10.980063 16.703125 10.09375 16.674893 10.09375 16.828125 L 10.09375 19.046875 L 10.09375 20.087891 L 10.09375 37.072266 L 10.09375 38.611328 L 10.09375 40.273438 L 10.142578 40.365234 L 10.257812 40.400391 L 36.855469 40.400391 C 37.328758 40.337861 37.991899 40.536564 38.326172 40.273438 L 38.326172 38.490234 L 38.326172 37.027344 L 38.326172 20.0625 L 38.326172 18.925781 L 38.326172 17.851562 C 38.326172 17.202983 38.317429 16.703125 38.166016 16.703125 L 11.564453 16.703125 z M 11.787109 17.265625 L 14.046875 17.265625 L 14.046875 19.523438 L 11.787109 19.523438 L 11.787109 17.265625 z M 16.304688 17.265625 L 18.564453 17.265625 L 18.564453 19.523438 L 16.304688 19.523438 L 16.304688 17.265625 z M 20.822266 17.265625 L 23.080078 17.265625 L 23.080078 19.523438 L 20.822266 19.523438 L 20.822266 17.265625 z M 25.339844 17.265625 L 27.597656 17.265625 L 27.597656 19.523438 L 25.339844 19.523438 L 25.339844 17.265625 z M 29.857422 17.265625 L 32.115234 17.265625 L 32.115234 19.523438 L 29.857422 19.523438 L 29.857422 17.265625 z M 34.373047 17.265625 L 36.632812 17.265625 L 36.632812 19.523438 L 34.373047 19.523438 L 34.373047 17.265625 z M 37.197266 20.0625 L 37.197266 37.029297 L 11.222656 37.070312 L 11.222656 20.087891 L 37.197266 20.0625 z M 24.236328 23.888672 C 21.573849 23.888672 19.416016 26.048458 19.416016 28.710938 C 19.416016 31.37339 21.573849 33.53125 24.236328 33.53125 C 26.89878 33.53125 29.056641 31.373391 29.056641 28.710938 C 29.056641 26.048458 26.89878 23.888672 24.236328 23.888672 z M 23.429688 26.263672 C 23.513616 26.268699 23.595992 26.296263 23.667969 26.345703 L 26.542969 28.322266 C 26.670202 28.409866 26.748047 28.556434 26.748047 28.710938 C 26.748047 28.86544 26.670229 29.010061 26.542969 29.097656 L 23.667969 31.074219 C 23.587979 31.129009 23.495697 31.158203 23.402344 31.158203 C 23.327204 31.158203 23.252294 31.139416 23.183594 31.103516 C 23.029202 31.021846 22.931641 30.861753 22.931641 30.6875 L 22.931641 26.732422 C 22.931641 26.558166 23.0292 26.398079 23.183594 26.316406 C 23.26079 26.275916 23.345759 26.258644 23.429688 26.263672 z M 11.787109 37.591797 L 14.046875 37.591797 L 14.046875 39.851562 L 11.787109 39.851562 L 11.787109 37.591797 z M 16.304688 37.591797 L 18.564453 37.591797 L 18.564453 39.851562 L 16.304688 39.851562 L 16.304688 37.591797 z M 20.822266 37.591797 L 23.080078 37.591797 L 23.080078 39.851562 L 20.822266 39.851562 L 20.822266 37.591797 z M 25.339844 37.591797 L 27.597656 37.591797 L 27.597656 39.851562 L 25.339844 39.851562 L 25.339844 37.591797 z M 29.857422 37.591797 L 32.115234 37.591797 L 32.115234 39.851562 L 29.857422 39.851562 L 29.857422 37.591797 z M 34.373047 37.591797 L 36.632812 37.591797 L 36.632812 39.851562 L 34.373047 39.851562 L 34.373047 37.591797 z "
     id="path14075" />
</svg>

<svg xmlns="http://www.w3.org/2000/svg" width="48" height="48"><defs><linearGradient id="a"><stop offset="0" stop-color="#dc85e9"/><stop offset="1" stop-color="#f2cbf8"/></linearGradient><linearGradient id="b"><stop offset="0" stop-color="#dc85e9"/><stop offset="1" stop-color="#f2cbf8"/></linearGradient><linearGradient id="c"><stop offset="0" stop-color="#fff" stop-opacity=".588"/><stop offset="1" stop-color="#fff" stop-opacity=".863"/></linearGradient><linearGradient id="d"><stop offset="0" stop-color="#b3b3b3"/><stop offset="1" stop-color="#e6e6e6"/></linearGradient><linearGradient id="e"><stop offset="0" stop-color="#e694bb"/><stop offset=".262" stop-color="#d3819a"/><stop offset=".705" stop-color="#b25a64"/><stop offset="1" stop-color="#98313d"/></linearGradient></defs><path style="line-height:normal;text-indent:0;text-align:start;text-decoration-line:none;text-transform:none;marker:none" d="M29.705-.084c-2.047.008-4.121.088-4.517.098H7a2.938 2.938 0 0 0-.563 0C5.063.276 3.975 1.612 4 3.012V45c0 1.57 1.43 3 3 3h34c1.57 0 3-1.43 3-3V18.818c.018-.792.215-9.927-.336-10.496L34.054.248c-.284-.275-2.302-.34-4.349-.332zm1.49 3.094l.133 7.504c.012.681.638 1.29 1.317 1.279l7.771-.137c.133.018.268.017.4-.006l.082 3.03L41 18.77v26.227H7V3.021h18.672l5.523-.011zm-19.63 13.693c-.585 0-1.471-.028-1.471.125v23.445l.049.092.115.035h26.597c.474-.062 1.137.137 1.471-.127V17.852c0-.649-.009-1.149-.16-1.149H11.564zm.222.563h2.26v2.257h-2.26v-2.257zm4.518 0h2.26v2.257h-2.26v-2.257zm4.517 0h2.258v2.257h-2.258v-2.257zm4.518 0h2.258v2.257H25.34v-2.257zm4.517 0h2.258v2.257h-2.258v-2.257zm4.516 0h2.26v2.257h-2.26v-2.257zm2.824 2.797v16.966l-25.974.041V20.088l25.974-.026zm-12.96 3.826a4.822 4.822 0 0 0 0 9.642 4.822 4.822 0 0 0 0-9.643zm-.807 2.375a.47.47 0 0 1 .238.082l2.875 1.976a.471.471 0 0 1 0 .775l-2.875 1.977a.47.47 0 0 1-.484.03.472.472 0 0 1-.252-.416v-3.956a.472.472 0 0 1 .498-.468zM11.787 37.592h2.26v2.26h-2.26v-2.26zm4.518 0h2.26v2.26h-2.26v-2.26zm4.517 0h2.258v2.26h-2.258v-2.26zm4.518 0h2.258v2.26H25.34v-2.26zm4.517 0h2.258v2.26h-2.258v-2.26zm4.516 0h2.26v2.26h-2.26v-2.26z" color="#000" font-weight="400" font-family="Andale Mono" overflow="visible" fill="#1a1a1a"/></svg>
